X:1
T:Kadrilj
T:komp. av Malmberg (SvL Skne 160)
C:Carl Gabriel Malmberg
R:Kadrilj
Z:Patrik Mnsson, 2008-10-23 
O:Trolle-Ljungby, Skne
S:Svenska Ltar
N: Svenska Ltar Skne 160
M:2/4
L:1/16
K:D
|: D2 | DFAc dfed | dcec A4 | g4 gbag | fefg a4 | DFAc dfed |
cdef gbag | f2df e2ce | d4 z2 :: df | a2f2 d'2cb | b2a2 a2ef |
g2A2 g2fe | e2d2 defg | a2f2 | d2cb | b2a2 e'2d'2 |
